X: 1
T: Biddy Martin's Polka
R: polka
Z: 2020 John Chambers <jc:trillian.mit.edu>
S: https://www.facebook.com/groups/Fiddletuneoftheday/
S: https://www.facebook.com/groups/Fiddletuneoftheday/photos/
M: C|
L: 1/8
K: D
|:\
fed2 B2e2 | e2f2 e2d2 | fed2 B2e2 | e2A2 d4 |\
fed2 B2e2 | e2f2 e2d2 | fed2 B2e2 | e2A2 d4 :|
|:\
faf2 e2[f2A2] | a2f2 e2d2 | faf2 e2[f2A2] | a2f2 e4 |\
faf2 e2[f2A2] | a2f2 e2d2 | fed2 B2e2 | e2A2 d4 :|
